X:074 
T:Her Golden Hair Was Curling Down  
B:CRE5.214 (BhÃÂÃÂÃÂÃÂ­ a Folt go hÃÂÃÂÃÂÃÂ³rga ag Casadh Sios)
F:file ID: cre.5/074her_gold
N:No repeats in CRE.
M:4/4
Q:140
R:hornpipe
K:D
(3ABc|dfed BAFA|dfed B2de|fAAf edBA|Beef e2 (3ABc|
dfed BAFA|dfed B2de|fAAf edBA|d2d2d2:|
|:FG|A2A2 f2fe|dedB A2A2|G2GA B2ed|e2e2 e2Bc|
dfed BAFA|dfed B2de|fAAf edBA|1 d2 d2 d2:|
[2 "last time"d2 d2 d4-|d8|]

%%%

